X: 30669
T: Open The Door For Three
R: slip jig
M: 9/8
K: Dmajor
|:FAA ~D2B AFD|FAA ~D2=c ~B2A|FAA ~D2B AFD|=cBc ~E2F GFE:|
dcd ~D2B AFD|dcd ~D2g ~f2e|dcd ~D2B AFD|=cBc ~E2F GFE|
dcd ~D2B AFD|dcd ~D2g ~f2e|def efd cBA|BAF DFA ~B2A||

